svg/u1f9d1_1f3fb_200d_1f9b2.svg

<svg viewBox="0 0 128 128" xmlns="http://www.w3.org/2000/svg">
  <g id="shirt_1_">
    <linearGradient id="SVGID_1_" gradientTransform="matrix(1 0 0 -1 0 128)" gradientUnits="userSpaceOnUse" x1="64" x2="64" y1="20.9752" y2="4.1985">
      <stop offset="0" stop-color="#F78C1F"/>
      <stop offset="0.4945" stop-color="#F37F21"/>
      <stop offset="1" stop-color="#ED6D23"/>
    </linearGradient>
    <path d="M64.13,94.68c-0.04,0-0.09,0-0.13,0c-25.49,0.03-51.13,7.5-51.13,25.28V124h1.5h1.5h96.27 h1.5h1.5v-4.04C115.13,103.2,89.73,94.68,64.13,94.68z" fill="url(#SVGID_1_)"/>
  </g>
  <g id="neck_1_">
    <path d="M54.92,90.08v9.98c0,4.51,3.7,8.17,8.26,8.17h1.65c4.56,0,8.26-3.66,8.26-8.17v-9.98L54.92,90.08z" fill="#EDC391"/>
  </g>
  <g id="ears_1_">
    <path d="M91.33,50.43H36.67c-5.89,0-10.71,5.14-10.71,11.41s4.82,11.41,10.71,11.41h54.65 c5.89,0,10.71-5.14,10.71-11.41S97.22,50.43,91.33,50.43z" fill="#EDC391"/>
  </g>
  <g id="head">
    <path d="M64,11.07c-21.36,0-33.52,18.61-33.52,45.4c0,26.64,16.61,39.81,33.52,39.81S97.52,83.1,97.52,56.46 C97.52,29.68,85.36,11.07,64,11.07z" fill="#F9DDBD"/>
  </g>
  <g id="eyes_1_">
    <ellipse cx="47.56" cy="58.81" fill="#312D2D" rx="4.93" ry="5.1"/>
    <ellipse cx="80.44" cy="58.81" fill="#312D2D" rx="4.93" ry="5.1"/>
  </g>
  <g id="eyebrows_1_">
    <path d="M54.99,49.82c-0.93-1.23-3.07-3.01-7.23-3.01s-6.31,1.79-7.23,3.01c-0.41,0.54-0.31,1.17-0.02,1.55 c0.26,0.35,1.04,0.68,1.9,0.39s2.54-1.16,5.35-1.18c2.81,0.02,4.49,0.89,5.35,1.18c0.86,0.29,1.64-0.03,1.9-0.39 C55.29,50.99,55.39,50.36,54.99,49.82z" fill="#454140"/>
    <path d="M87.48,49.82c-0.93-1.23-3.07-3.01-7.23-3.01s-6.31,1.79-7.23,3.01c-0.41,0.54-0.31,1.17-0.02,1.55 c0.26,0.35,1.04,0.68,1.9,0.39s2.54-1.16,5.35-1.18c2.81,0.02,4.49,0.89,5.35,1.18c0.86,0.29,1.64-0.03,1.9-0.39 C87.79,50.99,87.89,50.36,87.48,49.82z" fill="#454140"/>
  </g>
  <path id="nose_1_" d="M67.86,68.06c-0.11-0.04-0.21-0.07-0.32-0.08h-7.08c-0.11,0.01-0.22,0.04-0.32,0.08 c-0.64,0.26-0.99,0.92-0.69,1.63c0.3,0.71,1.71,2.69,4.55,2.69s4.25-1.99,4.55-2.69C68.85,68.98,68.5,68.32,67.86,68.06z" fill="#DBA689"/>
  <path id="mouth_1_" d="M72.42,76.14c-3.18,1.89-13.63,1.89-16.81,0c-1.83-1.09-3.7,0.58-2.94,2.24 c0.75,1.63,6.44,5.42,11.37,5.42s10.55-3.79,11.3-5.42C76.09,76.72,74.25,75.05,72.42,76.14z" fill="#444444"/>
</svg>

<svg viewBox="0 0 128 128" xmlns="http://www.w3.org/2000/svg">
  <defs>
    <linearGradient id="SVGID_1_" gradientTransform="matrix(1 0 0 -1 0 0)" gradientUnits="userSpaceOnUse" x1="64" x2="64" y1="-107.0248" y2="-123.8015">
      <stop offset="0" stop-color="#F78C1F"/>
      <stop offset="0.4945" stop-color="#F37F21"/>
      <stop offset="1" stop-color="#ED6D23"/>
    </linearGradient>
  </defs>
  <path d="M64.13,94.68 C64.09,94.68 64.04,94.68 64,94.68 C38.51,94.71 12.87,102.18 12.87,119.96 L12.87,124 L14.37,124 L15.87,124 L112.14,124 L113.64,124 L115.14,124 L115.14,119.96 C115.13,103.2 89.73,94.68 64.13,94.68 Z" fill="url(#SVGID_1_)"/>
  <path d="M54.92,90.08 L54.92,100.06 C54.92,104.57 58.62,108.23 63.18,108.23 L64.83,108.23 C69.39,108.23 73.09,104.57 73.09,100.06 L73.09,90.08 L54.92,90.08 Z" fill="#EDC391"/>
  <path d="M91.33,50.43 L36.67,50.43 C30.78,50.43 25.96,55.57 25.96,61.84 C25.96,68.11 30.78,73.25 36.67,73.25 L91.32,73.25 C97.21,73.25 102.03,68.11 102.03,61.84 C102.03,55.57 97.22,50.43 91.33,50.43 Z" fill="#EDC391"/>
  <path d="M64,11.07 C42.64,11.07 30.48,29.68 30.48,56.47 C30.48,83.11 47.09,96.28 64,96.28 C80.91,96.28 97.52,83.1 97.52,56.46 C97.52,29.68 85.36,11.07 64,11.07 Z" fill="#F9DDBD"/>
  <path d="M52.49,58.81 A4.93 5.1 0 1 1 42.63,58.81 A4.93 5.1 0 1 1 52.49,58.81 Z" fill="#312D2D"/>
  <path d="M85.37,58.81 A4.93 5.1 0 1 1 75.51,58.81 A4.93 5.1 0 1 1 85.37,58.81 Z" fill="#312D2D"/>
  <path d="M54.99,49.82 C54.06,48.59 51.92,46.81 47.76,46.81 C43.6,46.81 41.45,48.6 40.53,49.82 C40.12,50.36 40.22,50.99 40.51,51.37 C40.77,51.72 41.55,52.05 42.41,51.76 C43.27,51.47 44.95,50.6 47.76,50.58 C50.57,50.6 52.25,51.47 53.11,51.76 C53.97,52.05 54.75,51.73 55.01,51.37 C55.29,50.99 55.39,50.36 54.99,49.82 Z" fill="#454140"/>
  <path d="M87.48,49.82 C86.55,48.59 84.41,46.81 80.25,46.81 C76.09,46.81 73.94,48.6 73.02,49.82 C72.61,50.36 72.71,50.99 73,51.37 C73.26,51.72 74.04,52.05 74.9,51.76 C75.76,51.47 77.44,50.6 80.25,50.58 C83.06,50.6 84.74,51.47 85.6,51.76 C86.46,52.05 87.24,51.73 87.5,51.37 C87.79,50.99 87.89,50.36 87.48,49.82 Z" fill="#454140"/>
  <path id="nose_1_" d="M67.86,68.06 C67.75,68.02 67.65,67.99 67.54,67.98 L60.46,67.98 C60.35,67.99 60.24,68.02 60.14,68.06 C59.5,68.32 59.15,68.98 59.45,69.69 C59.75,70.4 61.16,72.38 64,72.38 C66.84,72.38 68.25,70.39 68.55,69.69 C68.85,68.98 68.5,68.32 67.86,68.06 Z" fill="#DBA689"/>
  <path id="mouth_1_" d="M72.42,76.14 C69.24,78.03 58.79,78.03 55.61,76.14 C53.78,75.05 51.91,76.72 52.67,78.38 C53.42,80.01 59.11,83.8 64.04,83.8 C68.97,83.8 74.59,80.01 75.34,78.38 C76.09,76.72 74.25,75.05 72.42,76.14 Z" fill="#444444"/>
</svg>
